public/assets/logos/firebase.svg

<svg width="76" height="106" viewBox="0 0 76 106" fill="none" xmlns="http://www.w3.org/2000/svg">
    <mask id="mask0_15_2" style="mask-type:alpha" maskUnits="userSpaceOnUse" x="10" y="15" width="56" height="76">
        <path d="M58.1319 32.1285C58.0262 31.4902 57.5779 30.9646 56.9693 30.7653C56.3608 30.5661 55.6933 30.7263 55.238 31.1811L46.4289 40.1819L39.4495 26.7883C39.1697 26.2146 38.5923 25.8515 37.9601 25.8515C37.3279 25.8515 36.7505 26.2146 36.4706 26.7883L32.683 34.1096L23.1079 16.1079C22.3419 14.6436 20.1714 15.0312 19.9161 16.6677L10.7239 76.3576L35.3642 90.3543C36.9147 91.2153 38.7927 91.2153 40.3433 90.3543L65.1963 76.3576L58.1319 32.1285Z" fill="white"/>
    </mask>
    <g mask="url(#mask0_15_2)">
        <path d="M58.1319 32.1285C58.0262 31.4902 57.5779 30.9646 56.9693 30.7653C56.3608 30.5661 55.6933 30.7263 55.238 31.1811L46.4289 40.1819L39.4495 26.7883C39.1697 26.2146 38.5923 25.8515 37.9601 25.8515C37.3279 25.8515 36.7505 26.2146 36.4706 26.7883L32.683 34.1096L23.1079 16.1079C22.3419 14.6436 20.1714 15.0312 19.9161 16.6677L10.7239 76.3576L35.3642 90.3543C36.9147 91.2153 38.7927 91.2153 40.3433 90.3543L65.1963 76.3576L58.1319 32.1285Z" fill="url(#paint0_linear_15_2)"/>
        <path d="M10.7239 76.3576L19.9586 16.6677C20.214 15.0312 22.3844 14.6436 23.1504 16.1079L32.683 34.1096L36.4706 26.7883C36.7634 26.2176 37.346 25.8595 37.9814 25.8595C38.6168 25.8595 39.1993 26.2176 39.4921 26.7883L65.1963 76.3576H10.7239Z" fill="#FFA000"/>
        <path d="M42.5562 53.1019L32.6405 34.1096L10.7239 76.3577L42.5562 53.1019Z" fill="#F57C00"/>
        <path d="M65.1963 76.3576L58.1319 32.1285C58.0262 31.4901 57.5779 30.9645 56.9693 30.7653C56.3608 30.566 55.6933 30.7263 55.238 31.1811L10.7239 76.3576L35.3642 90.3543C36.9147 91.2153 38.7927 91.2153 40.3433 90.3543L65.1963 76.3576Z" fill="#FFCA28"/>
        <path d="M58.1318 32.1285C58.026 31.4902 57.5778 30.9646 56.9692 30.7653C56.3607 30.5661 55.6931 30.7263 55.2379 31.1811L46.4287 40.1819L39.4494 26.7883C39.1695 26.2146 38.5921 25.8515 37.9599 25.8515C37.3277 25.8515 36.7503 26.2146 36.4704 26.7883L32.6829 34.1096L23.1077 16.1079C22.3417 14.6436 20.1713 15.0312 19.9159 16.6677L10.7237 76.3576H10.6812L10.7237 76.4007L10.979 76.5299L46.3861 40.6126L55.2379 31.6548C55.6931 31.2001 56.3607 31.0398 56.9692 31.239C57.5778 31.4383 58.026 31.9639 58.1318 32.6023L65.111 76.4007L65.1962 76.3576L58.1318 32.1285ZM10.8088 76.2715L19.9585 17.0984C20.2138 15.4619 22.3842 15.0743 23.1503 16.5385L32.6829 34.5403L36.4704 27.219C36.7632 26.6483 37.3458 26.2902 37.9812 26.2902C38.6166 26.2902 39.1992 26.6483 39.4919 27.219L46.301 40.3111L10.8088 76.2715Z" fill="white" fill-opacity="0.2"/>
        <path opacity="0.2" d="M40.3433 89.9233C38.7927 90.785 36.9147 90.785 35.3642 89.9233L10.7664 75.97L10.7239 76.3576L35.3642 90.3542C36.9147 91.2159 38.7927 91.2159 40.3433 90.3542L65.1963 76.3576L65.1538 75.97L40.3433 89.9233Z" fill="#A52714"/>
        <path d="M58.1319 32.1285C58.0262 31.4902 57.5779 30.9646 56.9694 30.7653C56.3609 30.5661 55.6933 30.7263 55.238 31.1811L46.4289 40.1819L39.4495 26.7883C39.1697 26.2146 38.5923 25.8515 37.9601 25.8515C37.3279 25.8515 36.7505 26.2146 36.4706 26.7883L32.683 34.1096L23.1079 16.1079C22.3419 14.6436 20.1714 15.0312 19.9161 16.6677L10.7239 76.3576L35.3642 90.3543C36.9147 91.2153 38.7927 91.2153 40.3433 90.3543L65.1963 76.3576L58.1319 32.1285Z" fill="url(#paint1_linear_15_2)"/>
    </g>
    <defs>
        <linearGradient id="paint0_linear_15_2" x1="8.82727" y1="28.1047" x2="77.0653" y2="63.7652" gradientUnits="userSpaceOnUse">
            <stop stop-color="white" stop-opacity="0.1"/>
            <stop offset="1" stop-color="white" stop-opacity="0"/>
        </linearGradient>
        <linearGradient id="paint1_linear_15_2" x1="8.82727" y1="28.1047" x2="77.0653" y2="63.7652" gradientUnits="userSpaceOnUse">
            <stop stop-color="white" stop-opacity="0.1"/>
            <stop offset="1" stop-color="white" stop-opacity="0"/>
        </linearGradient>
    </defs>
</svg>

<svg width="76" height="106" viewBox="0 0 76 106" fill="none" xmlns="http://www.w3.org/2000/svg"><mask id="a" style="mask-type:alpha" maskUnits="userSpaceOnUse" x="10" y="15" width="56" height="76"><path d="M58.132 32.129a1.728 1.728 0 0 0-1.163-1.364 1.7 1.7 0 0 0-1.731.416l-8.81 9-6.978-13.393a1.659 1.659 0 0 0-1.49-.936 1.66 1.66 0 0 0-1.49.936l-3.787 7.322-9.575-18.002c-.766-1.464-2.937-1.077-3.192.56l-9.192 59.69 24.64 13.996a5.122 5.122 0 0 0 4.98 0l24.852-13.996-7.064-44.23Z" fill="#fff"/></mask><g mask="url(#a)"><path d="M58.132 32.129a1.728 1.728 0 0 0-1.163-1.364 1.7 1.7 0 0 0-1.731.416l-8.81 9-6.978-13.393a1.659 1.659 0 0 0-1.49-.936 1.66 1.66 0 0 0-1.49.936l-3.787 7.322-9.575-18.002c-.766-1.464-2.937-1.077-3.192.56l-9.192 59.69 24.64 13.996a5.122 5.122 0 0 0 4.98 0l24.852-13.996-7.064-44.23Z" fill="url(#b)"/><path d="m10.724 76.358 9.235-59.69c.255-1.637 2.425-2.024 3.191-.56l9.533 18.002 3.788-7.322a1.7 1.7 0 0 1 1.51-.928 1.7 1.7 0 0 1 1.511.928l25.704 49.57H10.724Z" fill="#FFA000"/><path d="M42.556 53.102 32.641 34.11 10.724 76.358l31.832-23.256Z" fill="#F57C00"/><path d="m65.196 76.358-7.064-44.23a1.728 1.728 0 0 0-1.163-1.363 1.699 1.699 0 0 0-1.731.416L10.724 76.358l24.64 13.996a5.122 5.122 0 0 0 4.98 0l24.852-13.996Z" fill="#FFCA28"/><path d="M58.132 32.129a1.728 1.728 0 0 0-1.163-1.364 1.7 1.7 0 0 0-1.731.416l-8.81 9-6.979-13.393a1.66 1.66 0 0 0-1.49-.936 1.66 1.66 0 0 0-1.489.936l-3.787 7.322-9.575-18.002c-.766-1.464-2.937-1.077-3.192.56l-9.192 59.69h-.043l.043.043.255.129 35.407-35.917 8.852-8.958a1.7 1.7 0 0 1 1.731-.416c.609.2 1.057.725 1.163 1.363l6.979 43.799.085-.043-7.064-44.23ZM10.809 76.272l9.15-59.174c.255-1.636 2.425-2.024 3.191-.56l9.533 18.002 3.787-7.321a1.7 1.7 0 0 1 1.511-.929 1.7 1.7 0 0 1 1.51.929l6.81 13.092-35.492 35.96Z" fill="#fff" fill-opacity=".2"/><path opacity=".2" d="M40.343 89.923a5.118 5.118 0 0 1-4.979 0L10.766 75.97l-.042.388 24.64 13.996a5.118 5.118 0 0 0 4.98 0l24.852-13.996-.042-.388-24.81 13.953Z" fill="#A52714"/><path d="M58.132 32.129a1.728 1.728 0 0 0-1.163-1.364 1.7 1.7 0 0 0-1.731.416l-8.81 9-6.978-13.393a1.659 1.659 0 0 0-1.49-.936 1.66 1.66 0 0 0-1.49.936l-3.787 7.322-9.575-18.002c-.766-1.464-2.937-1.077-3.192.56l-9.192 59.69 24.64 13.996a5.122 5.122 0 0 0 4.98 0l24.852-13.996-7.064-44.23Z" fill="url(#c)"/></g><defs><linearGradient id="b" x1="8.827" y1="28.105" x2="77.065" y2="63.765" gradientUnits="userSpaceOnUse"><stop stop-color="#fff" stop-opacity=".1"/><stop offset="1" stop-color="#fff" stop-opacity="0"/></linearGradient><linearGradient id="c" x1="8.827" y1="28.105" x2="77.065" y2="63.765" gradientUnits="userSpaceOnUse"><stop stop-color="#fff" stop-opacity=".1"/><stop offset="1" stop-color="#fff" stop-opacity="0"/></linearGradient></defs></svg>
